src/16/panel/telegram-panel.svg

<svg xmlns="http://www.w3.org/2000/svg" width="16" height="16" version="1">
 <defs>
  <style id="current-color-scheme" type="text/css">
   .ColorScheme-Text { color:#dfdfdf; } .ColorScheme-Highlight { color:#5294e2; }
  </style>
 </defs>
 <path style="fill:currentColor" class="ColorScheme-Text" d="M 9.2892,14.877 C 8.8989,14.641 8.6504,14.231 7.5671,12.041 6.9683,10.829 6.3976,9.752 6.2996,9.6488 6.1898,9.5324 5.2862,9.0521 3.9368,8.3932 1.2706,7.0921 1,6.8854 1,6.1477 1,5.8042 1.1679,5.4747 1.4311,5.3034 1.5215,5.2445 4.3093,4.2472 7.6258,3.0872 13.453,1.0492 13.67,0.97916 14.068,1.0035 14.412,1.0245 14.512,1.0595 14.678,1.2173 14.926,1.4539 15.037,1.7819 14.989,2.1326 14.937,2.5096 10.753,14.327 10.597,14.536 10.266,14.983 9.703,15.13 9.2883,14.878 Z"/>
</svg>

<svg xmlns="http://www.w3.org/2000/svg" width="16" height="16" version="1"><defs><style id="current-color-scheme" type="text/css"></style></defs><path d="M9.29 14.877c-.391-.236-.64-.646-1.723-2.836-.599-1.212-1.17-2.289-1.267-2.392-.11-.117-1.014-.597-2.363-1.256C1.27 7.093 1 6.885 1 6.148c0-.344.168-.673.431-.845.09-.058 2.878-1.056 6.195-2.216C13.453 1.05 13.67.98 14.068 1.003c.344.022.444.057.61.214.248.237.359.565.311.916-.052.377-4.236 12.194-4.392 12.403-.331.447-.894.594-1.309.342z" fill="currentColor" color="#dfdfdf"/></svg>
